!!!SOCIAL_FUNCTION:	war songs
!!!PDT:	1929
!!!OTL: No_145_A_Whirlwind_Is_Singing.krn
!!!REG: Southwest
!!!LANG: Non-Tone
!!!LING_GROUP: Uto-Aztecan
**kern
*staff1
*clefF4
*k[]
*M2/4
4E\
=1
8.B\L
16A\Jk
8B\L
8A\J
=2||
*M3/4
8.G\L
16G\Jk
8G\L
8F#\J
4F#\
=3||
*M2/4
4.F#\
8E\
=4
4E\
4F\
=5
8.A\L
16F\Jk
12A\L
12G#\
12F#\J
=6||
*M3/4
8.E\L
16E\Jk
8E\L
8E\J
4E\
=7
2.E\
=8||
*M2/4
4E\
8.E\L
16E\Jk
=9
4.F#\
8F#\
=10
8G#\L
8F#\J
8.F#\L
16F#\Jk
=11||
*M3/8
8F#\L
8E\
8E\J
=12||
*M2/4
12F#\L
12F#\
12F#\J
4E\
=13||
*M3/4
2.E\
=14||
*M2/4
4E\
8E\L
8E\J
=15
4E\
4E\
=16||
*M3/4
4E\
4E\
4C#/
=17
4E\
4E\
4C#/
=18||
*M2/4
12E\L
12E\
12E\J
4E\
=19
*M3/4
[2E\
4E\]
==:|!
*-
